src/lib/packages/icons/src/assets/filled/sort-horizontal.svg

<svg width="24" height="24" viewBox="0 0 24 24" fill="none" xmlns="http://www.w3.org/2000/svg">
<path d="M10.7071 8.70707L7.4141 12L10.7071 15.293C11.0981 15.684 11.0981 16.3161 10.7071 16.7071C10.5121 16.9021 10.256 17 10 17C9.74404 17 9.48801 16.9021 9.29301 16.7071L5.29301 12.7071C4.90201 12.3161 4.90201 11.684 5.29301 11.293L9.29301 7.29301C9.68401 6.90201 10.3161 6.90201 10.7071 7.29301C11.0981 7.68401 11.0981 8.31607 10.7071 8.70707ZM18.7071 11.293L14.7071 7.29301C14.3161 6.90201 13.684 6.90201 13.293 7.29301C12.902 7.68401 12.902 8.31607 13.293 8.70707L16.586 12L13.293 15.293C12.902 15.684 12.902 16.3161 13.293 16.7071C13.488 16.9021 13.744 17 14 17C14.256 17 14.5121 16.9021 14.7071 16.7071L18.7071 12.7071C19.0981 12.3161 19.0981 11.684 18.7071 11.293Z" fill="currentColor"/>
</svg>

<svg xmlns="http://www.w3.org/2000/svg" width="24" height="24" fill="none"><path fill="currentColor" d="M10.707 8.707 7.414 12l3.293 3.293a.999.999 0 1 1-1.414 1.414l-4-4a.999.999 0 0 1 0-1.414l4-4a.999.999 0 1 1 1.414 1.414Zm8 2.586-4-4a.999.999 0 1 0-1.414 1.414L16.586 12l-3.293 3.293a.999.999 0 1 0 1.414 1.414l4-4a.999.999 0 0 0 0-1.414Z"/></svg>
